X: 1
T: Niel Gow's Lament for the Death of His Second Wife
C: Niel Gow
R: waltz, air
%date: 1805
Z: John Chambers <jc:trillian.mit.edu>
N: By Niel Gow (1727-1807).  His second wife was Margaret Urquhart of Perth,  to
N: whom  he  was  happily married for three decades.  A note in Gow's Collection
N: reads "They lived together upwards of 30 years.  She died 2 years before him;
N: she had no issue." [From the Fiddler's Companion]
N: Similar to the Irish air Kitty Tyrrell (or Ketty Terrol).
M: 6/8
L: 1/8
K: D
|: D/B,/ \
| "D"A,>B,D "Bm"D>ED | "Em"E>FA "G"{A}B2{c}d | "D"A>FD "Em"E>DE | "Bm"{DE}F>DB, "G"B,2 ||
   D/B,/ \
|  "D"A,>B,D "Bm"D>ED | "Em"EFA "G"{c}d2c/B/ | "D"A>FD "G"{=C}B,2A, | "G"B,<DD "D"D3 :|
(3A/B/c/ \
| "D"d>fd "A7"ecA | "G"B/A/B/c/d "D"B/A/G/F/E/D/ | "Em"E>DE "D"{DE}FED | "Bm"{DE}F>DB, "G"B,2 ||
(3A/B/c/ \
| "D"d>fd "A7"ecA | "G"B/A/B/c/d "D"B/A/G/F/E/D/ | "Em"E>DE "Bm"{DE}F>DB, | "D"A,<D"(G)"D "D"D2 |]
(3A/B/c/ \
| "D"d>fd "A7"ecA | "G"B/A/B/c/d "D"B/A/G/F/E/D/ | F/D/A/F/d/A/ "Bm"B/A/G/F/E/D/ | "Em"FEE "A7"E2 ||
   D/B,/ \
| "D"A,>B,D "Bm"D>ED | "Em"EFA "G"Hd2c/B/ | "D"A>FD "G"{=C}B,2A, | "G"B,<DD "D"D3 |]

%%newpage

#abcjoin: UCT=1.
#abcjoin: sep=1.


